X: 32716
T: Polka With Teeth
R: polka
M: 2/4
K: Aminor
|:Ac/d/ ee|d/c/B/A/ G2|EG/A/ Bc-|cB/c/ dB|
Ac/d/ ee|d/c/B/A/ G2|EG/A/ B c-|cB A2:|
|:dc/B/ Ad|c/B/A G2|EG/A/ Bc-|cB cB|
dc/B/ Ad|c/B/A G2|EG/A/ Bc-|cB A2:|

